Newaita/actions/24/code-class.svg

<svg height="24" viewBox="0 0 24 24" width="24" xmlns="http://www.w3.org/2000/svg"><g fill="#424242"><path d="m3.96875 2.171875c-1.097656 0-1.984375.886719-1.984375 1.984375v6.945312h8.929687v-8.929687zm.992188 1.984375h3.96875v4.960938h-4.960938v-3.96875c0-.550782.441406-.992188.992188-.992188zm0 0"/><path d="m3.96875 22.019531c-1.097656 0-1.984375-.886719-1.984375-1.988281v-6.945312h8.929687v8.933593zm.992188-1.988281h3.96875v-4.960938h-4.960938v3.96875c0 .550782.441406.992188.992188.992188zm0 0"/><path d="m19.84375 22.019531c1.101562 0 1.988281-.886719 1.988281-1.988281v-6.945312h-8.933593v8.933593zm-.992188-1.988281h-3.96875v-4.960938h4.960938v3.96875c0 .550782-.441406.992188-.992188.992188zm0 0"/><path d="m6.078125 10.109375h.742187c.070313 0 .125.054687.125.125v3.722656c0 .066407-.054687.121094-.125.121094h-.742187c-.070313 0-.125-.054687-.125-.121094v-3.722656c0-.070313.054687-.125.125-.125zm0 0"/><path d="m16.992188 6.140625h.746093c.066407 0 .121094.113281.121094.25v7.441406c0 .136719-.054687.246094-.121094.246094h-.746093c-.066407 0-.125-.109375-.125-.246094v-7.441406c0-.136719.058593-.25.125-.25zm0 0"/><path d="m17.859375 6.265625v.742187c0 .070313-.109375.125-.246094.125h-7.441406c-.136719 0-.25-.054687-.25-.125v-.742187c0-.070313.113281-.125.25-.125h7.441406c.136719 0 .246094.054687.246094.125zm0 0"/></g></svg>

<svg xmlns="http://www.w3.org/2000/svg" xmlns:xlink="http://www.w3.org/1999/xlink" width="24px" height="24px" viewBox="0 0 24 24" version="1.1">
<g id="surface1">
     <defs>
  <style id="current-color-scheme" type="text/css">
   .ColorScheme-Text { color:#424242; } .ColorScheme-Highlight { color:#eeeeee; }
  </style>
 </defs>
<path style="fill:currentColor" class="ColorScheme-Text" d="M 3.96875 2.171875 C 2.871094 2.171875 1.984375 3.058594 1.984375 4.15625 L 1.984375 11.101562 L 10.914062 11.101562 L 10.914062 2.171875 Z M 4.960938 4.15625 L 8.929688 4.15625 L 8.929688 9.117188 L 3.96875 9.117188 L 3.96875 5.148438 C 3.96875 4.597656 4.410156 4.15625 4.960938 4.15625 Z M 4.960938 4.15625 "/>
     <defs>
  <style id="current-color-scheme" type="text/css">
   .ColorScheme-Text { color:#424242; } .ColorScheme-Highlight { color:#eeeeee; }
  </style>
 </defs>
<path style="fill:currentColor" class="ColorScheme-Text" d="M 3.96875 22.019531 C 2.871094 22.019531 1.984375 21.132812 1.984375 20.03125 L 1.984375 13.085938 L 10.914062 13.085938 L 10.914062 22.019531 Z M 4.960938 20.03125 L 8.929688 20.03125 L 8.929688 15.070312 L 3.96875 15.070312 L 3.96875 19.039062 C 3.96875 19.589844 4.410156 20.03125 4.960938 20.03125 Z M 4.960938 20.03125 "/>
     <defs>
  <style id="current-color-scheme" type="text/css">
   .ColorScheme-Text { color:#424242; } .ColorScheme-Highlight { color:#eeeeee; }
  </style>
 </defs>
<path style="fill:currentColor" class="ColorScheme-Text" d="M 19.84375 22.019531 C 20.945312 22.019531 21.832031 21.132812 21.832031 20.03125 L 21.832031 13.085938 L 12.898438 13.085938 L 12.898438 22.019531 Z M 18.851562 20.03125 L 14.882812 20.03125 L 14.882812 15.070312 L 19.84375 15.070312 L 19.84375 19.039062 C 19.84375 19.589844 19.402344 20.03125 18.851562 20.03125 Z M 18.851562 20.03125 "/>
     <defs>
  <style id="current-color-scheme" type="text/css">
   .ColorScheme-Text { color:#424242; } .ColorScheme-Highlight { color:#eeeeee; }
  </style>
 </defs>
<path style="fill:currentColor" class="ColorScheme-Text" d="M 6.078125 10.109375 L 6.820312 10.109375 C 6.890625 10.109375 6.945312 10.164062 6.945312 10.234375 L 6.945312 13.957031 C 6.945312 14.023438 6.890625 14.078125 6.820312 14.078125 L 6.078125 14.078125 C 6.007812 14.078125 5.953125 14.023438 5.953125 13.957031 L 5.953125 10.234375 C 5.953125 10.164062 6.007812 10.109375 6.078125 10.109375 Z M 6.078125 10.109375 "/>
     <defs>
  <style id="current-color-scheme" type="text/css">
   .ColorScheme-Text { color:#424242; } .ColorScheme-Highlight { color:#eeeeee; }
  </style>
 </defs>
<path style="fill:currentColor" class="ColorScheme-Text" d="M 16.992188 6.140625 L 17.738281 6.140625 C 17.804688 6.140625 17.859375 6.253906 17.859375 6.390625 L 17.859375 13.832031 C 17.859375 13.96875 17.804688 14.078125 17.738281 14.078125 L 16.992188 14.078125 C 16.925781 14.078125 16.867188 13.96875 16.867188 13.832031 L 16.867188 6.390625 C 16.867188 6.253906 16.925781 6.140625 16.992188 6.140625 Z M 16.992188 6.140625 "/>
     <defs>
  <style id="current-color-scheme" type="text/css">
   .ColorScheme-Text { color:#424242; } .ColorScheme-Highlight { color:#eeeeee; }
  </style>
 </defs>
<path style="fill:currentColor" class="ColorScheme-Text" d="M 17.859375 6.265625 L 17.859375 7.007812 C 17.859375 7.078125 17.75 7.132812 17.613281 7.132812 L 10.171875 7.132812 C 10.035156 7.132812 9.921875 7.078125 9.921875 7.007812 L 9.921875 6.265625 C 9.921875 6.195312 10.035156 6.140625 10.171875 6.140625 L 17.613281 6.140625 C 17.75 6.140625 17.859375 6.195312 17.859375 6.265625 Z M 17.859375 6.265625 "/>
</g>
</svg>
